assets/html-5.svg

<svg height="288" width="288" xmlns="http://www.w3.org/2000/svg"><svg height="288" preserveAspectRatio="xMidYMid" viewBox="0 0 256 361" width="288" xmlns="http://www.w3.org/2000/svg"><path d="m255.554813 70.7657143-23.241143 260.3597367-104.469802 28.962461-104.1821537-28.92167-23.21652749-260.4005277z" fill="#b7b7b7"/><path d="m128 337.950242 84.416703-23.403605 19.861099-222.4893183h-104.277802z" fill="#d8d8d8"/><path d="m82.8202198 155.932132h45.1797802v-31.937407h-80.082989l.7644835 8.568264 7.8494945 88.009846h71.469011v-31.936703h-42.2610989zm7.1975384 80.609758h-32.0597802l4.4743736 50.145758 65.4206594 18.161231.146989-.040791v-33.227956l-.139956.037275-35.5685275-9.60422z" fill="#ebebeb"/><path d="m24.1807473 0h16.229978v16.0351648h14.8465934v-16.0351648h16.2306813v48.5584176h-16.229978v-16.2602198h-14.8465934v16.2602198h-16.2299781v-48.5584176zm68.6501978 16.1026813h-14.2881759v-16.1026813h44.8140658v16.1026813h-14.294505v32.4557363h-16.2306816v-32.4557363zm37.6383299-16.1026813h16.923428l10.410198 17.061978 10.399648-17.061978h16.929759v48.5584176h-16.163165v-24.0682198l-11.166242 17.2652308h-.279209l-11.173978-17.2652308v24.0682198h-15.880439zm62.740395 0h16.234901v32.5077802h22.824088v16.0506374h-39.058989z" fill="#252525"/><path d="m127.889582 220.572835h39.326945l-3.707076 41.419956-35.619869 9.614066v33.22655l65.472704-18.145759.480351-5.395692 7.504879-84.079824.779253-8.576h-74.237187zm0-64.718769v.078066h77.143209l.640704-7.17855 1.45512-16.190593.763781-8.568264h-80.002814z" fill="#fff"/></svg></svg>

<?xml version="1.0" encoding="UTF-8" standalone="no"?>
<svg width="256px" height="361px" viewBox="0 0 256 361" version="1.1" xmlns="http://www.w3.org/2000/svg" xmlns:xlink="http://www.w3.org/1999/xlink" preserveAspectRatio="xMidYMid">
    <g>
        <path d="M255.554813,70.7657143 L232.31367,331.125451 L127.843868,360.087912 L23.6617143,331.166242 L0.445186813,70.7657143 L255.554813,70.7657143 L255.554813,70.7657143 Z" fill="#E44D26"/>
        <path d="M128,337.950242 L212.416703,314.546637 L232.277802,92.0573187 L128,92.0573187 L128,337.950242 L128,337.950242 Z" fill="#F16529"/>
        <path d="M82.8202198,155.932132 L128,155.932132 L128,123.994725 L47.917011,123.994725 L48.6814945,132.562989 L56.530989,220.572835 L128,220.572835 L128,188.636132 L85.7389011,188.636132 L82.8202198,155.932132 L82.8202198,155.932132 Z" fill="#EBEBEB"/>
        <path d="M90.0177582,236.54189 L57.957978,236.54189 L62.4323516,286.687648 L127.853011,304.848879 L128,304.808088 L128,271.580132 L127.860044,271.617407 L92.2915165,262.013187 L90.0177582,236.54189 L90.0177582,236.54189 Z" fill="#EBEBEB"/>
        <path d="M24.1807473,0 L40.4107253,0 L40.4107253,16.0351648 L55.2573187,16.0351648 L55.2573187,0 L71.488,0 L71.488,48.5584176 L55.258022,48.5584176 L55.258022,32.2981978 L40.4114286,32.2981978 L40.4114286,48.5584176 L24.1814505,48.5584176 L24.1814505,0 L24.1807473,0 L24.1807473,0 Z" fill="#000000"/>
        <path d="M92.8309451,16.1026813 L78.5427692,16.1026813 L78.5427692,0 L123.356835,0 L123.356835,16.1026813 L109.06233,16.1026813 L109.06233,48.5584176 L92.8316484,48.5584176 L92.8316484,16.1026813 L92.8309451,16.1026813 L92.8309451,16.1026813 Z" fill="#000000"/>
        <path d="M130.469275,0 L147.392703,0 L157.802901,17.061978 L168.202549,0 L185.132308,0 L185.132308,48.5584176 L168.969143,48.5584176 L168.969143,24.4901978 L157.802901,41.7554286 L157.523692,41.7554286 L146.349714,24.4901978 L146.349714,48.5584176 L130.469275,48.5584176 L130.469275,0 L130.469275,0 Z" fill="#000000"/>
        <path d="M193.20967,0 L209.444571,0 L209.444571,32.5077802 L232.268659,32.5077802 L232.268659,48.5584176 L193.20967,48.5584176 L193.20967,0 L193.20967,0 Z" fill="#000000"/>
        <path d="M127.889582,220.572835 L167.216527,220.572835 L163.509451,261.992791 L127.889582,271.606857 L127.889582,304.833407 L193.362286,286.687648 L193.842637,281.291956 L201.347516,197.212132 L202.126769,188.636132 L127.889582,188.636132 L127.889582,220.572835 L127.889582,220.572835 Z" fill="#FFFFFF"/>
        <path d="M127.889582,155.854066 L127.889582,155.932132 L205.032791,155.932132 L205.673495,148.753582 L207.128615,132.562989 L207.892396,123.994725 L127.889582,123.994725 L127.889582,155.854066 L127.889582,155.854066 Z" fill="#FFFFFF"/>
    </g>
</svg>
